src/assets/images/logos/logo-06.svg

<svg height="40" viewBox="0 0 175 40" width="175" xmlns="http://www.w3.org/2000/svg" xmlns:xlink="http://www.w3.org/1999/xlink"><mask id="a" fill="#fff"><path d="m6.705 3.14c-.2200011-.2800014-.50749822-.50249918-.8625-.6675-.35500177-.16500083-.69749835-.2475-1.0275-.2475-.17000085 0-.34249912.01499985-.5175.045-.17500087.03000015-.3324993.08749957-.4725.1725-.1400007.08500042-.25749952.19499932-.3525.33-.09500047.13500068-.1425.30749895-.1425.5175 0 .1800009.03749963.3299994.1125.45.07500038.1200006.18499928.22499955.33.315.14500073.09000045.317499.17249962.5175.2475.200001.07500037.42499875.1524996.675.2325.3600018.1200006.73499805.25249928 1.125.3975s.7449984.3374988 1.065.5775.58499895.53749822.795.8925.315.79749735.315 1.3275c0 .61000305-.11249887 1.13749777-.3375 1.5825-.22500112.44500222-.5274981.8124986-.9075 1.1025-.3800019.2900015-.81499755.5049993-1.305.645s-.9949974.21-1.515.21c-.7600038 0-1.49499645-.1324987-2.205-.3975s-1.29999765-.6424975-1.77-1.1325l1.68-1.71c.2600013.3200016.60249788.58749892 1.0275.8025.42500213.21500107.8474979.3225 1.2675.3225.19000095 0 .3749991-.0199998.555-.06s.33749933-.10499955.4725-.195c.13500068-.09000045.2424996-.20999925.3225-.36s.12-.32999895.12-.54c0-.200001-.0499995-.3699993-.15-.51s-.24249907-.26749942-.4275-.3825c-.18500092-.11500058-.41499862-.21999953-.69-.315-.27500137-.09500047-.58749825-.19749945-.9375-.3075-.3400017-.11000055-.67249837-.23999925-.9975-.39-.32500162-.15000075-.61499872-.34249883-.87-.5775-.25500127-.23500118-.45999922-.51999833-.615-.855-.15500077-.33500168-.2325-.7424976-.2325-1.2225 0-.59000295.1199988-1.0949979.36-1.515s.55499805-.76499865.945-1.035.82999755-.46749937 1.32-.5925c.49000245-.12500062.9849975-.1875 1.485-.1875.600003 0 1.21249688.1099989 1.8375.33.62500313.2200011 1.17249765.54499785 1.6425.975zm14.31.51c0 .6200031-.1149988 1.14249788-.345 1.5675-.2300011.42500212-.539998.7674987-.93 1.0275-.3900019.2600013-.8399974.4499994-1.35.57-.5100025.1200006-1.0399972.18-1.59.18h-1.275v4.005h-2.565v-10.62h3.9c.5800029 0 1.1224975.05749943 1.6275.1725.5050025.11500058.9449981.29999873 1.32.555s.6699989.58999792.885 1.005c.2150011.41500207.3225.92749695.3225 1.5375zm-2.565.015c0-.25000125-.0499995-.4549992-.15-.615s-.2349991-.28499955-.405-.375c-.1700008-.09000045-.3624989-.14999985-.5775-.18s-.4374988-.045-.6675-.045h-1.125v2.505h1.08c.2400012 0 .4699989-.0199998.69-.06s.4174991-.1099995.5925-.21.3124995-.23249918.4125-.3975c.1000005-.16500083.15-.37249875.15-.6225zm13.41 7.335-.825-2.085h-4.11l-.78 2.085h-2.79l4.455-10.62h2.49l4.41 10.62zm-2.85-7.785-1.35 3.645h2.67zm18.66 6.315c-.4700023.5400027-1.0499965.9674984-1.74 1.2825-.6900034.3150016-1.4849955.4725-2.385.4725-.8200041 0-1.5774965-.1349987-2.2725-.405-.6950035-.2700014-1.2974974-.6524975-1.8075-1.1475-.5100025-.49500247-.9099985-1.08749655-1.2-1.7775-.2900014-.69000345-.435-1.44999585-.435-2.28 0-.85000425.1474985-1.61999655.4425-2.31s.7024974-1.27749758 1.2225-1.7625c.5200026-.48500243 1.1299965-.8574987 1.83-1.1175s1.454996-.39 2.265-.39c.7500038 0 1.4874964.13249868 2.2125.3975.7250036.26500133 1.3124978.65249745 1.7625 1.1625l-1.74 1.74c-.2400012-.33000165-.554998-.5749992-.945-.735-.3900019-.1600008-.7899979-.24-1.2-.24-.4500022 0-.8624981.08249917-1.2375.2475-.3750019.16500082-.6974986.39249855-.9675.6825-.2700013.29000145-.4799992.63249802-.63 1.0275-.1500007.39500197-.225.82749765-.225 1.2975 0 .4800024.0749993.919998.225 1.32.1500008.400002.3574987.74249857.6225 1.0275.2650013.28500142.5824982.5074992.9525.6675.3700019.1600008.7749978.24 1.215.24.5100026 0 .9549981-.099999 1.335-.3s.6849989-.4599984.915-.78zm4.095 1.47v-10.62h7.14v2.175h-4.665v1.995h4.41v2.055h-4.41v2.205h4.935v2.19zm16.65-8.43v8.43h-2.565v-8.43h-3v-2.19h8.565v2.19zm7.17 8.43v-10.62h2.58v10.62zm17.4 0 .06-7.515h-.045l-2.76 7.515h-1.8l-2.685-7.515h-.045l.06 7.515h-2.415v-10.62h3.645l2.415 6.81h.06l2.31-6.81h3.705v10.62zm7.695 0v-10.62h7.14v2.175h-4.665v1.995h4.41v2.055h-4.41v2.205h4.935v2.19z" fill="none"/></mask><mask id="b" fill="#fff"><path d="m18.4584436 20.0531579 2.7151128 2.7153383c-1.9432331 1.628797-4.3775188 2.6880452-7.0457143 2.9233083v-3.8447368c1.6190977-.2043609 3.1021805-.8418045 4.3306015-1.7939098zm-6.5862857-19.74478196v3.84451128c-1.6188722.20458646-3.10195489.84180451-4.33037595 1.79390977l-2.71533834-2.71533834c1.94345865-1.62857143 4.37774436-2.68804512 7.04571429-2.92308271zm9.301421 2.92319549-2.7151127 2.71533834c-1.2284211-.95210526-2.7117294-1.58954887-4.3306015-1.79390977v-3.84451128c2.6681955.2350376 5.1024812 1.29428572 7.0457142 2.92308271zm.6733985 8.64069927c-.2043609-1.6190978-.8415789-3.10218047-1.7936842-4.33060153l2.7151128-2.71533834c1.6290226 1.94345864 2.6880451 4.37774436 2.9233083 7.04593987zm0 2.2556391h3.8447369c-.2352632 2.6679699-1.2942857 5.1024812-2.9233083 7.0457143l-2.7151128-2.7153384c.9521053-1.228421 1.5893233-2.7115037 1.7936842-4.3303759zm-17.69399996-2.2556391h-3.84473684c.23526316-2.66819551 1.29451128-5.10248123 2.92330827-7.04593987l2.71533835 2.71511278c-.95233083 1.22864662-1.58954887 2.71172929-1.79390978 4.33082709zm.6733985 10.8961353 2.71533835-2.7151128c1.22819548.9521053 2.71150371 1.5893233 4.33037591 1.7939098v3.8445113c-2.6679699-.2352632-5.10225561-1.2945113-7.04571426-2.9233083zm1.12053383-4.3099398-2.71533834 2.7153383c-1.62879699-1.9434586-2.68804511-4.3779699-2.92330827-7.0459398h3.84473684c.2043609 1.6190977.84157895 3.1021804 1.79390977 4.3306015z" fill="none"/></mask><g fill="none" fill-rule="evenodd"><path d="m0 0h175v40h-175z"/><g fill="#fff"><g mask="url(#a)" transform="translate(46 14)"><path d="m0 0h175v40h-175z" transform="translate(-46 -14)"/></g><g mask="url(#b)" transform="translate(8 7)"><path d="m0 0h175v40h-175z" transform="translate(-8 -7)"/></g></g></g></svg>

<?xml version="1.0" encoding="UTF-8"?>
<svg width="175px" height="40px" viewBox="0 0 175 40" version="1.1" xmlns="http://www.w3.org/2000/svg" xmlns:xlink="http://www.w3.org/1999/xlink">
    <!-- Generator: Sketch 49 (51002) - http://www.bohemiancoding.com/sketch -->
    <title>Brand/Logo/logo-06</title>
    <desc>Created with Sketch.</desc>
    <defs>
        <path d="M6.705,3.14 C6.4849989,2.8599986 6.19750178,2.63750082 5.8425,2.4725 C5.48749823,2.30749917 5.14500165,2.225 4.815,2.225 C4.64499915,2.225 4.47250088,2.23999985 4.2975,2.27 C4.12249913,2.30000015 3.9650007,2.35749957 3.825,2.4425 C3.6849993,2.52750042 3.56750048,2.63749932 3.4725,2.7725 C3.37749953,2.90750068 3.33,3.07999895 3.33,3.29 C3.33,3.4700009 3.36749963,3.6199994 3.4425,3.74 C3.51750038,3.8600006 3.62749928,3.96499955 3.7725,4.055 C3.91750073,4.14500045 4.089999,4.22749962 4.29,4.3025 C4.490001,4.37750037 4.71499875,4.4549996 4.965,4.535 C5.3250018,4.6550006 5.69999805,4.78749928 6.09,4.9325 C6.48000195,5.07750072 6.8349984,5.2699988 7.155,5.51 C7.4750016,5.7500012 7.73999895,6.04749822 7.95,6.4025 C8.16000105,6.75750178 8.265,7.19999735 8.265,7.73 C8.265,8.34000305 8.15250113,8.86749777 7.9275,9.3125 C7.70249888,9.75750222 7.4000019,10.1249986 7.02,10.415 C6.6399981,10.7050015 6.20500245,10.9199993 5.715,11.06 C5.22499755,11.2000007 4.7200026,11.27 4.2,11.27 C3.4399962,11.27 2.70500355,11.1375013 1.995,10.8725 C1.28499645,10.6074987 0.69500235,10.2300025 0.225,9.74 L1.905,8.03 C2.1650013,8.3500016 2.50749788,8.61749892 2.9325,8.8325 C3.35750213,9.04750107 3.7799979,9.155 4.2,9.155 C4.39000095,9.155 4.5749991,9.1350002 4.755,9.095 C4.9350009,9.0549998 5.09249933,8.99000045 5.2275,8.9 C5.36250068,8.80999955 5.4699996,8.69000075 5.55,8.54 C5.6300004,8.38999925 5.67,8.21000105 5.67,8 C5.67,7.799999 5.6200005,7.6300007 5.52,7.49 C5.4199995,7.3499993 5.27750093,7.22250058 5.0925,7.1075 C4.90749908,6.99249942 4.67750138,6.88750047 4.4025,6.7925 C4.12749863,6.69749953 3.81500175,6.59500055 3.465,6.485 C3.1249983,6.37499945 2.79250163,6.24500075 2.4675,6.095 C2.14249838,5.94499925 1.85250128,5.75250117 1.5975,5.5175 C1.34249873,5.28249882 1.13750078,4.99750167 0.9825,4.6625 C0.827499225,4.32749832 0.75,3.9200024 0.75,3.44 C0.75,2.84999705 0.8699988,2.3450021 1.11,1.925 C1.3500012,1.5049979 1.66499805,1.16000135 2.055,0.89 C2.44500195,0.61999865 2.88499755,0.422500625 3.375,0.2975 C3.86500245,0.172499375 4.3599975,0.11 4.86,0.11 C5.460003,0.11 6.07249688,0.2199989 6.6975,0.44 C7.32250313,0.6600011 7.86999765,0.98499785 8.34,1.415 L6.705,3.14 Z M21.015,3.65 C21.015,4.2700031 20.9000012,4.79249788 20.67,5.2175 C20.4399989,5.64250212 20.130002,5.9849987 19.74,6.245 C19.3499981,6.5050013 18.9000026,6.6949994 18.39,6.815 C17.8799975,6.9350006 17.3500028,6.995 16.8,6.995 L15.525,6.995 L15.525,11 L12.96,11 L12.96,0.38 L16.86,0.38 C17.4400029,0.38 17.9824975,0.437499425 18.4875,0.5525 C18.9925025,0.667500575 19.4324981,0.852498725 19.8075,1.1075 C20.1825019,1.36250127 20.4774989,1.69749792 20.6925,2.1125 C20.9075011,2.52750207 21.015,3.03999695 21.015,3.65 Z M18.45,3.665 C18.45,3.41499875 18.4000005,3.2100008 18.3,3.05 C18.1999995,2.8899992 18.0650009,2.76500045 17.895,2.675 C17.7249992,2.58499955 17.5325011,2.52500015 17.3175,2.495 C17.1024989,2.46499985 16.8800012,2.45 16.65,2.45 L15.525,2.45 L15.525,4.955 L16.605,4.955 C16.8450012,4.955 17.0749989,4.9350002 17.295,4.895 C17.5150011,4.8549998 17.7124991,4.7850005 17.8875,4.685 C18.0625009,4.5849995 18.1999995,4.45250082 18.3,4.2875 C18.4000005,4.12249917 18.45,3.91500125 18.45,3.665 Z M31.86,11 L31.035,8.915 L26.925,8.915 L26.145,11 L23.355,11 L27.81,0.38 L30.3,0.38 L34.71,11 L31.86,11 Z M29.01,3.215 L27.66,6.86 L30.33,6.86 L29.01,3.215 Z M47.67,9.53 C47.1999977,10.0700027 46.6200035,10.4974984 45.93,10.8125 C45.2399966,11.1275016 44.4450045,11.285 43.545,11.285 C42.7249959,11.285 41.9675035,11.1500013 41.2725,10.88 C40.5774965,10.6099986 39.9750026,10.2275025 39.465,9.7325 C38.9549975,9.23749753 38.5550015,8.64500345 38.265,7.955 C37.9749986,7.26499655 37.83,6.50500415 37.83,5.675 C37.83,4.82499575 37.9774985,4.05500345 38.2725,3.365 C38.5675015,2.67499655 38.9749974,2.08750242 39.495,1.6025 C40.0150026,1.11749757 40.6249965,0.7450013 41.325,0.485 C42.0250035,0.2249987 42.779996,0.095 43.59,0.095 C44.3400038,0.095 45.0774964,0.227498675 45.8025,0.4925 C46.5275036,0.757501325 47.1149978,1.14499745 47.565,1.655 L45.825,3.395 C45.5849988,3.06499835 45.270002,2.8200008 44.88,2.66 C44.4899981,2.4999992 44.0900021,2.42 43.68,2.42 C43.2299978,2.42 42.8175019,2.50249917 42.4425,2.6675 C42.0674981,2.83250082 41.7450014,3.05999855 41.475,3.35 C41.2049987,3.64000145 40.9950008,3.98249802 40.845,4.3775 C40.6949993,4.77250197 40.62,5.20499765 40.62,5.675 C40.62,6.1550024 40.6949993,6.594998 40.845,6.995 C40.9950008,7.395002 41.2024987,7.73749857 41.4675,8.0225 C41.7325013,8.30750142 42.0499982,8.5299992 42.42,8.69 C42.7900019,8.8500008 43.1949978,8.93 43.635,8.93 C44.1450026,8.93 44.5899981,8.830001 44.97,8.63 C45.3500019,8.429999 45.6549989,8.1700016 45.885,7.85 L47.67,9.53 Z M51.765,11 L51.765,0.38 L58.905,0.38 L58.905,2.555 L54.24,2.555 L54.24,4.55 L58.65,4.55 L58.65,6.605 L54.24,6.605 L54.24,8.81 L59.175,8.81 L59.175,11 L51.765,11 Z M68.415,2.57 L68.415,11 L65.85,11 L65.85,2.57 L62.85,2.57 L62.85,0.38 L71.415,0.38 L71.415,2.57 L68.415,2.57 Z M75.585,11 L75.585,0.38 L78.165,0.38 L78.165,11 L75.585,11 Z M92.985,11 L93.045,3.485 L93,3.485 L90.24,11 L88.44,11 L85.755,3.485 L85.71,3.485 L85.77,11 L83.355,11 L83.355,0.38 L87,0.38 L89.415,7.19 L89.475,7.19 L91.785,0.38 L95.49,0.38 L95.49,11 L92.985,11 Z M100.68,11 L100.68,0.38 L107.82,0.38 L107.82,2.555 L103.155,2.555 L103.155,4.55 L107.565,4.55 L107.565,6.605 L103.155,6.605 L103.155,8.81 L108.09,8.81 L108.09,11 L100.68,11 Z" id="path-1"></path>
        <path d="M18.4584436,20.0531579 L21.1735564,22.7684962 C19.2303233,24.3972932 16.7960376,25.4565414 14.1278421,25.6918045 L14.1278421,21.8470677 C15.7469398,21.6427068 17.2300226,21.0052632 18.4584436,20.0531579 Z M11.8721579,0.30837594 L11.8721579,4.15288722 C10.2532857,4.35747368 8.77020301,4.99469173 7.54178195,5.94679699 L4.82644361,3.23145865 C6.76990226,1.60288722 9.20418797,0.543413534 11.8721579,0.30837594 Z M21.1735789,3.23157143 L18.4584662,5.94690977 C17.2300451,4.99480451 15.7467368,4.3573609 14.1278647,4.153 L14.1278647,0.308488722 C16.7960602,0.543526316 19.2303459,1.60277444 21.1735789,3.23157143 Z M21.8469774,11.8722707 C21.6426165,10.2531729 21.0053985,8.77009023 20.0532932,7.54166917 L22.768406,4.82633083 C24.3974286,6.76978947 25.4564511,9.20407519 25.6917143,11.8722707 L21.8469774,11.8722707 Z M21.8469774,14.1279098 L25.6917143,14.1279098 C25.4564511,16.7958797 24.3974286,19.230391 22.768406,21.1736241 L20.0532932,18.4582857 C21.0053985,17.2298647 21.6426165,15.746782 21.8469774,14.1279098 Z M4.15297744,11.8722707 L0.308240602,11.8722707 C0.543503759,9.20407519 1.60275188,6.76978947 3.23154887,4.82633083 L5.94688722,7.54144361 C4.99455639,8.77009023 4.35733835,10.2531729 4.15297744,11.8722707 Z M4.82637594,22.768406 L7.54171429,20.0532932 C8.76990977,21.0053985 10.253218,21.6426165 11.8720902,21.847203 L11.8720902,25.6917143 C9.2041203,25.4564511 6.76983459,24.397203 4.82637594,22.768406 Z M5.94690977,18.4584662 L3.23157143,21.1738045 C1.60277444,19.2303459 0.543526316,16.7958346 0.308263158,14.1278647 L4.153,14.1278647 C4.3573609,15.7469624 4.99457895,17.2300451 5.94690977,18.4584662 Z" id="path-3"></path>
    </defs>
    <g id="Brand/Logo/logo-06" stroke="none" stroke-width="1" fill="none" fill-rule="evenodd">
        <rect id="#" x="0" y="0" width="175" height="40"></rect>
        <g id="Text" transform="translate(46.000000, 14.000000)">
            <mask id="mask-2" fill="white">
                <use xlink:href="#path-1"></use>
            </mask>
            <g id="Spacetime"></g>
            <g id="Brand/Color/White" mask="url(#mask-2)" fill="#FFFFFF">
                <g transform="translate(-46.000000, -14.000000)" id="Color">
                    <rect x="0" y="0" width="175" height="40"></rect>
                </g>
            </g>
        </g>
        <g id="Icon" transform="translate(8.000000, 7.000000)">
            <mask id="mask-4" fill="white">
                <use xlink:href="#path-3"></use>
            </mask>
            <g id="Mask"></g>
            <g id="Brand/Color/White" mask="url(#mask-4)" fill="#FFFFFF">
                <g transform="translate(-8.000000, -7.000000)" id="Color">
                    <rect x="0" y="0" width="175" height="40"></rect>
                </g>
            </g>
        </g>
    </g>
</svg>
